Newaita-dark/actions/32/edit-copy.svg

<svg height="32" viewBox="0 0 32 32" width="32" xmlns="http://www.w3.org/2000/svg"><g fill="#e0e0e0"><path d="m15.875 14.808594c-.726562 0-1.316406.589844-1.316406 1.316406v11.910156c0 .726563.589844 1.316406 1.316406 1.316406h9.261719c.726562 0 1.316406-.589843 1.316406-1.316406v-9.261718c0-.351563-.136719-.683594-.382813-.933594l-2.648437-2.644532c-.246094-.246093-.582031-.386718-.929687-.386718zm1.316406 2.632812h4.753906l1.875 1.875v7.402344h-6.628906zm0 0"/><path d="m7.9375 2.894531c-1.464844 0-2.644531 1.183594-2.644531 2.648438v21.167969c0 1.464843 1.179687 2.644531 2.644531 2.644531h3.96875v-2.644531h-2.644531c-.734375 0-1.324219-.589844-1.324219-1.324219v-18.523438c0-.730469.589844-1.320312 1.324219-1.320312h5.292969v-.007813h4.746093l4.519531 4.523438v2.097656h2.632813v-2.644531c0-.351563-.136719-.683594-.382813-.929688l-5.292968-5.292969c-.246094-.246093-.582032-.386718-.933594-.386718h-5.289062v-.007813zm0 0"/></g></svg>

<svg xmlns="http://www.w3.org/2000/svg" xmlns:xlink="http://www.w3.org/1999/xlink" width="32px" height="32px" viewBox="0 0 32 32" version="1.1">
<g id="surface1">
     <defs>
  <style id="current-color-scheme" type="text/css">
   .ColorScheme-Text { color:#eeeeee; } .ColorScheme-Highlight { color:#424242; }
  </style>
 </defs>
<path style="fill:currentColor" class="ColorScheme-Text" d="M 15.875 14.808594 C 15.148438 14.808594 14.558594 15.398438 14.558594 16.125 L 14.558594 28.035156 C 14.558594 28.761719 15.148438 29.351562 15.875 29.351562 L 25.136719 29.351562 C 25.863281 29.351562 26.453125 28.761719 26.453125 28.035156 L 26.453125 18.773438 C 26.453125 18.421875 26.316406 18.089844 26.070312 17.839844 L 23.421875 15.195312 C 23.175781 14.949219 22.839844 14.808594 22.492188 14.808594 Z M 17.191406 17.441406 L 21.945312 17.441406 L 23.820312 19.316406 L 23.820312 26.71875 L 17.191406 26.71875 Z M 17.191406 17.441406 "/>
     <defs>
  <style id="current-color-scheme" type="text/css">
   .ColorScheme-Text { color:#eeeeee; } .ColorScheme-Highlight { color:#424242; }
  </style>
 </defs>
<path style="fill:currentColor" class="ColorScheme-Text" d="M 7.9375 2.894531 C 6.472656 2.894531 5.292969 4.078125 5.292969 5.542969 L 5.292969 26.710938 C 5.292969 28.175781 6.472656 29.355469 7.9375 29.355469 L 11.90625 29.355469 L 11.90625 26.710938 L 9.261719 26.710938 C 8.527344 26.710938 7.9375 26.121094 7.9375 25.386719 L 7.9375 6.863281 C 7.9375 6.132812 8.527344 5.542969 9.261719 5.542969 L 14.554688 5.542969 L 14.554688 5.535156 L 19.300781 5.535156 L 23.820312 10.058594 L 23.820312 12.15625 L 26.453125 12.15625 L 26.453125 9.511719 C 26.453125 9.160156 26.316406 8.828125 26.070312 8.582031 L 20.777344 3.289062 C 20.53125 3.042969 20.195312 2.902344 19.84375 2.902344 L 14.554688 2.902344 L 14.554688 2.894531 Z M 7.9375 2.894531 "/>
</g>
</svg>
